!!!!SEGMENT: pl-wtm--r-1175--004_lessel-franciszek--quartetto-no-6-fuga.krn
!!!cenid: 18xx:1628
!!!COM: Lessel, Franciszek
!!!COM-rismid: pe30004332
!!!CDT: 1780-1838/12/26
!!!CNT: Polish
!!!OPR: Quartetto No 6
!!!OTL: Fuga
!!!OMV: 004
!!!PDT:
!!!AGN: Secular; String quartet; Fugue
!!!SMS-siglum: PL-Wtm
!!!SMS-shelfmark: R 1175
!!!SMS-shelfwork: 001-004 M
!!!SMS-variant:
!!!SMS-altvar:
!!!NIFC-rismid: 1001085812
!!!URL-scan: http://repozytorium.nifc.pl/skany/pl-wtm-nut--r1175
!!!ONB-nifc: UWAGA: części Kwartetu: 1. Allegro di molto (łącznie z początkowym Adagio), 2. Andante, 3. Menuetto, 4. Fuga
**kern	**dynam
*Iviola	*
*I"Viola	*
*I'vla	*
*clefC3	*
*k[b-]	*
*d:	*
*M2/2	*
*met(c|)	*
=1	=1
!LO:TX:t=Fuga	!
!LO:TX:a:t=a due Sogetti. All(egr)o mod(era)to	!
4D/	.
2A/	fz
4G/	.
=2	=2
4F/	.
4E/	.
4D/	.
4B-/	.
=3	=3
2.A/	.
4G/	.
=4	=4
2F/	.
8G/L	.
8F/J	.
4E/	.
!!LO:LB:g=original
=5	=5
4D/	.
8E/L	.
8F/J	.
4G/	.
4G#X/	.
=6	=6
8A/L	.
8E/	.
8F#X/	.
8G#X/J	.
8A/L	.
8c/	.
8Bn/	.
8A/J	.
=7	=7
8G#X/L	.
8A/	.
8Bn/	.
8c/J	.
8d\L	.
8e\J	.
[4fn\	fz
=8	=8
4f\]	.
*2\right	*
2e\	.
4d\	.
=9	=9
4c\	.
4c#X\	.
4d\	.
4e\	.
!!LO:LB:g=original
=10	=10
4f\	.
2dd\	.
[4a\	.
=11	=11
4a\]	.
8e\L	.
8f\J	.
4d\	.
4r	.
=12	=12
!LO:TX:a:t=1	!
1r	.
=13	=13
2r	.
4r	.
4a\	.
=14	=14
4g\	.
8a\L	.
8g\J	.
8f\L	.
8e\J	.
[4d\	.
=15	=15
8d\L]	.
8e\	.
8f\	.
8g\J	.
8a\L	.
8e\	.
8a\	.
8g\J	.
!!LO:LB:g=original
=16	=16
8f#X\L	.
8d\	.
8g\	.
8a\J	.
8b-\L	.
8a\	.
8g\	.
8fn\J	.
=17	=17
8e\L	.
8c#X\	.
8d\	.
8e\J	.
4f\	.
[4e\	.
=18	=18
4e\]	.
4d\	.
4.c\	.
8A\	.
=19	=19
8e\L	.
8f#X\	.
8g#X\	.
8a\J	.
2b-\	.
=20	=20
2a\	.
4.g#X\	.
8g#\	.
!!LO:LB:g=original
=21	=21
4a\	.
8g#X\L	.
8a\J	.
4e\	.
[4E/	.
=22	=22
4E/]	.
2e\	.
[4e\	.
=23	=23
4e\]	.
8A/L	.
8Bn/J	.
8c#X\L	.
8e\	.
8d\	.
8c#\J	.
=24	=24
4d\	.
2dd\	fz
[4cc\	.
=25	=25
4.cc\]	.
8g\	.
4f#X\	.
4a\	.
!!LO:LB:g=original
=26	=26
4g\	.
4a\	.
8b-\L	.
8cc\	.
8dd\	.
8cc\J	.
=27	=27
4b-\	.
2c\	fz
[4cc\	.
=28	=28
8cc\L]	.
8b-\	.
8a\	.
8g\J	.
4f\	.
8e\L	.
8d\J	.
=29	=29
!LO:TX:t=P:problem:mixed beam	!
8c\L	.
8C/	.
8D/	.
8E/J	.
8F/L	.
8A/	.
8G/	.
8F/J	.
=30	=30
8E/L	.
8F/	.
8G/	.
8A/J	.
8B-/L	.
8c/J	.
[4d\	fz
!!LO:LB:g=original
=31	=31
4d\]	.
2c\	.
4B-\	.
=32	=32
8A/L	.
8B-/	.
8A/	.
8G/J	.
8F/L	.
8G/	.
8A/	.
8Bn/J	.
=33	=33
4.c\	.
8d\	.
4e\	.
4f\	.
=34	=34
4g\	.
4b-\	.
4a\	.
[4c\	.
=35	=35
4c\]	.
2cc\	.
4b-\	.
!!LO:LB:g=original
=36	=36
4a\	.
4r	.
2r	.
=37	=37
4r	.
4c\	.
[2f\	fz
=38	=38
4f\]	.
4e\	.
4d\	.
4c\	.
=39	=39
8r	.
8A/L	.
8B-/	.
8c/J	.
8d\L	.
8e\	.
8f\	.
8g\J	.
=40	=40
4a\	.
8A/L	.
8B-/J	.
8c\L	.
8d\	.
8e\	.
8f\J	.
!!LO:LB:g=original
=41	=41
4g\	.
8G/L	.
8A/J	.
8B-\L	.
8c\	.
8d\	.
8e\J	.
=42	=42
4f\	.
2d\	.
4c\	.
=43	=43
4C/	.
2c\	.
4d\	.
=44	=44
4e\	.
4r	.
2r	.
=45	=45
!LO:TX:a:t=1.	!
1r	.
!LO:TX:b:t=V&colon; S&colon;	!
!!LO:PB:g=original
=46	=46
2r	.
4r	.
4F/	.
=47	=47
8f\L	.
8e\	.
8f\	.
8g\J	.
8a\L	.
8g\	.
8a\	.
8bn\J	.
=48	=48
4cc\	.
2c\	fz
[4c\	.
=49	=49
4c\]	.
4b-X\	.
4a\	.
4bn\	.
=50	=50
4cc\	.
2a\	.
4g#X\	.
!!LO:LB:g=original
=51	=51
4a\	.
4f\	.
4d\	.
4e\	.
=52	=52
8c\L	.
8e\	.
8d\	.
8c\J	.
8Bn\L	.
8d\	.
8c\	.
8B\J	.
=53	=53
4A/	.
4d/	.
4c/	.
4A/	.
=54	=54
4.Bn/	.
8A/	.
2G#X/	.
=55	=55
2A/	.
4Bn/	.
4c/	.
!!LO:LB:g=original
=56	=56
4d\	.
4r	.
2r	.
=57	=57
4e\	.
2a\	fz
4a\	.
=58	=58
4g\	.
4f#X\	.
4e\	.
[4cc\	.
=59	=59
4cc\]	.
2bn\	.
[4a\	.
=60	=60
4a\]	.
2g\	.
[4f#X\	.
=61	=61
4f#\]	.
8e\L	.
8d\J	.
8c\L	.
8d\	.
8c\	.
8Bn\J	.
!!LO:LB:g=original
=62	=62
8A/L	.
8Bn/	.
8c/	.
8d/J	.
8e\L	.
8B\	.
8e\	.
8d\J	.
=63	=63
8c/L	.
8A/	.
8d/	.
8c/J	.
8Bn/L	.
8G/	.
8A/	.
8B/J	.
=64	=64
8c\L	.
8d\	.
8e\	.
8f#X\J	.
8g\L	.
8d\	.
8bn\	.
8a\J	.
=65	=65
8g\L	.
8Bn\	.
8c\	.
8d\J	.
2d\	.
!!LO:LB:g=original
=66	=66
8c/L	.
8A/	.
8Bn/	.
8c/J	.
2c\	.
=67	=67
8Bn/L	.
8G/	.
8A/	.
8B/J	.
2A/	.
=68	=68
8Bn\L	.
8c\	.
8d\	.
8e\J	.
8f#X\L	.
8g\J	.
[4a\	.
=69	=69
4a\]	.
2g\	.
4fn\	.
!!LO:LB:g=original
=70	=70
8e\L	.
8f#X\	.
8g#X\	.
8a\J	.
8bn\L	.
8cc\J	.
4b\	.
=71	=71
2a\	.
[2g\	.
=72	=72
4g\]	.
4a\	.
4c#X\	.
4cc#X\	.
=73	=73
2dd\	.
2cc#X\	.
=74	=74
4dd\	.
4r	.
4r	.
8r	.
8e\	.
!!LO:LB:g=original
=75	=75
8f#X\L	.
8g#X\	.
8a\	.
8cc\J	.
8bn\L	.
8a\	.
8g#\	.
8a\J	.
=76	=76
2e\	.
4g#X\	.
4a\	.
=77	=77
4bn\	.
8e\L	.
8d\J	.
4a\	.
8d\L	.
8c\J	.
=78	=78
4.Bn/	.
8B/	.
4c/	.
4r	.
!!LO:LB:g=original
=79	=79
8r	.
8D/L	.
8E/	.
8F#X/J	.
8G/L	.
8A/J	.
4Bn/	.
=80	=80
4r	.
4G/	.
8A/L	.
8G/	.
8F#X/	.
8E/J	.
=81	=81
1D/	.
=82	=82
8r	.
8D/L	.
8E/	.
8F#X/J	.
8G/L	.
8A/	.
8Bn/	.
8c/J	.
!!LO:LB:g=original
=83	=83
!LO:TX:t=P:problem:interpretacja taktu niepewna	!
4d\	.
4c\	.
4Bn/	.
4A/	.
=84	=84
2G/	.
4A/	.
4Bn/	.
=85	=85
4c\	.
8f#X\L	.
8e\J	.
[2d\	.
=86	=86
4d\]	.
2g\	fz
4f#X\	.
!!LO:LB:g=original
=87	=87
4g\	.
4A#X/	.
[2Bn/	.
=88	=88
2B/]	.
4Bn/	.
4D#X/	.
=89	=89
4E/	.
8G/L	.
8F#X/J	.
4E/	.
4e\	.
=90	=90
4d\	.
4D/	.
2r	.
=91	=91
!LO:TX:a:t=1.	!
1r	.
!!LO:LB:g=original
=92	=92
4r	.
8c/L	fz
8Bn/J	.
4A/	.
4F#X/	.
=93	=93
4Bn/	.
4r	.
4r	.
[4e\	.
=94	=94
4e\]	.
4G#X/	.
4A/	.
4Bn/	.
=95	=95
1c\	.
=96	=96
4r	.
8Bn\L	.
8c\J	.
4d\	.
4B\	.
!!LO:LB:g=original
=97	=97
4e\	.
2A/	fz
4c#X\	.
=98	=98
4d\	.
2d\	.
[4cn\	.
=99	=99
4c\]	.
2B-X/	.
4A/	.
=100	=100
4a\	.
2d\	fz
4e\	.
=101	=101
4f\	.
4g\	.
4a\	.
4c#X\	.
=102	=102
2.d\	.
4e\	.
!!LO:PB:g=original
=103	=103
2f\	.
8e\L	.
8f\J	.
[4g\	.
=104	=104
4g\]	.
4f\	.
2e\	.
=105	=105
2A/	.
4Bn/	.
8e\L	.
8d\J	.
=106	=106
8c\L	.
8d\J	.
2e\	.
[4f\	.
=107	=107
4f\]	.
2g\	.
4a\	.
!!LO:LB:g=original
=108	=108
4g\	.
8a\L	.
8g\J	.
4f\	.
8g\L	.
8f\J	.
=109	=109
4e\	.
2e\	.
4d\	.
=110	=110
4c\	.
4Bn\	.
4c\	.
4d\	.
=111	=111
4.e\	.
8f\	.
8e\L	.
8d\	.
8c\	.
8Bn\J	.
=112	=112
4A/	.
4r	.
2r	.
!!LO:LB:g=original
=113	=113
!LO:TX:a:t=1	!
1r	.
=114	=114
4r	.
8g#X\L	.
8a\J	.
4e\	.
[4E/	.
=115	=115
4E/]	.
2e\	.
[4e\	.
=116	=116
4e\]	.
8A/L	.
8Bn/J	.
8c#X\L	.
8e\	.
8d\	.
8c#\J	.
=117	=117
2d\	.
2c#X\	.
=118	=118
4d\	.
2a\	fz
4g\	.
!!LO:LB:g=original
=119	=119
4f\	.
4e\	.
4d\	.
4b-X\	.
=120	=120
2.a\	.
4g\	.
=121	=121
8f\L	.
8A\	.
8Bn\	.
8c#X\J	.
4d\	.
8e\L	.
8f\J	.
=122	=122
4e\	.
4r	.
8r	.
8c#X\L	.
8d\	.
8e\J	.
=123	=123
4f\	.
4r	.
2r	.
!!LO:LB:g=original
=124	=124
!LO:TX:a:t=1.	!
1r	.
=125	=125
8r	.
8d\L	.
8e\	.
8f\J	.
8g\L	.
8B-\	.
8c\	.
8d\J	.
=126	=126
4e\	.
4r	.
2r	.
=127	=127
8r	.
8e\L	.
8f\	.
8g\J	.
8a\L	.
8c\	.
8d\	.
8e\J	.
=128	=128
4f\	.
4r	.
2r	.
!!LO:LB:g=original
=129	=129
8r	.
8f\L	.
8g\	.
8a\J	.
8b-\L	.
8d\	.
8e\	.
8f\J	.
=130	=130
4g\	.
4r	.
2r	.
=131	=131
8r	.
8g\L	.
8a\	.
8b-\J	.
8cc\L	.
8e\	.
8f\	.
8g\J	.
=132	=132
4a\	.
4g\	.
4f\	.
4e\	.
=133	=133
4d\	.
2dd\	fz
4cc\	.
!!LO:LB:g=original
=134	=134
4b-\	.
4a\	.
4g\	.
4f\	.
=135	=135
4e\	.
2ee\	fz
4dd\	.
=136	=136
4cc\	.
4b-\	.
4a\	.
4g\	.
=137	=137
4f\	.
2f\	fz
4e\	.
=138	=138
4d\	.
4c\	.
4B-\	.
4A\	.
=139	=139
4G/	.
2g\	fz
4f\	.
!!LO:LB:g=original
=140	=140
4e\	.
4d\	.
4c#X\	.
[4a\	.
=141	=141
4a\]	.
4g\	.
8f\L	.
8e\J	.
4d\	.
=142	=142
1r	.
=143	=143
4A/	.
2d\	fz
4c#X\	.
=144	=144
4d\	.
2a\	fz
8g\L	.
8f\J	.
=145	=145
2e\	.
2d\	.
!!LO:LB:g=original
=146	=146
4r	.
2e\	.
4e\	.
=147	=147
4d\	.
4g\	.
4f\	.
4e\	.
=148	=148
4.d\	.
8f\	.
2et\	.
=149	=149
!	!LO:DY:t=fomo.
1d\	ff
=150	=150
*^	*
2g\	2ryy	.
!	!LO:N:xstem	!
2Bn\	2d\	.
!!LO:LB:g=original
=151	=151	=151
4e/	4c#X\	.
!	!LO:N:xstem	!
2A\	2e/	.
4e\ 4A\	4ryy	.
*v	*v	*
=152	=152
4f#X\ 4A\	.
4r	.
4e\ 4A\	.
4r	.
=153	=153
4f#X\ 4A\ 4D\	.
4r	.
!LO:TX:b:t=Fine	!
2r	.
==	==
*-	*-
!!!EED: Leszek Kubiak
!!!EST: 2021-04-13
!!!AIN: 1 viola
!!!ENC: Kamil Watkowski
!!!END: 2021-03-27
